icons/lines/direct.svg

<svg xmlns="http://www.w3.org/2000/svg" width="24" height="24" viewBox="0 0 24 24" fill="none" stroke="currentColor" stroke-width="2" stroke-linecap="round" stroke-linejoin="round">
  <path d="M10.34 7h3.33" />
  <path d="M15 22c5 0 7-2 7-7V9c0-5-2-7-7-7H9C4 2 2 4 2 9v6c0 5 2 7 7 7z" />
  <path d="M2 13h3.76a2 2 0 0 1 1.79 1.11l.89 1.79a2 2 0 0 0 1.8 1.1h3.53a2 2 0 0 0 1.79-1.11l.89-1.79a2 2 0 0 1 1.79-1.11h3.74" />
  <path d="M9.5 10h5" />
</svg>

<svg xmlns="http://www.w3.org/2000/svg" width="24" height="24" viewBox="0 0 24 24" fill="none" stroke="currentColor" stroke-width="2" stroke-linecap="round" stroke-linejoin="round" >
  <path d="M9 22H15C20 22 22 20 22 15V9C22 4 20 2 15 2H9C4 2 2 4 2 9V15C2 20 4 22 9 22Z"/>
  <path d="M2 13H5.76C6.52 13 7.21 13.43 7.55 14.11L8.44 15.9C9 17 10 17 10.24 17H13.77C14.53 17 15.22 16.57 15.56 15.89L16.45 14.1C16.79 13.42 17.48 12.99 18.24 12.99H21.98"/>
  <path d="M10.3398 7H13.6698"/>
  <path d="M9.5 10H14.5"/>
  </svg>
